frontend/packages/ui/static/icons/mistral.svg

<svg width="48" height="48" viewBox="0 0 48 48" fill="none" xmlns="http://www.w3.org/2000/svg">
<g clip-path="url(#clip0_1417_15135)">
<path d="M34.9092 1.99902H43.6364V10.7886H34.9092V1.99902Z" fill="black"/>
<path d="M39.2734 1.99902H48.0006V10.7886H39.2734V1.99902Z" fill="#F7D046"/>
<path d="M0 1.99902H8.72719V10.7886H0V1.99902ZM0 10.7886H8.72719V19.5783H0V10.7886ZM0 19.5784H8.72719V28.3681H0V19.5784ZM0 28.3681H8.72719V37.1577H0V28.3681ZM0 37.1579H8.72719V45.9475H0V37.1579Z" fill="black"/>
<path d="M4.36426 1.99902H13.0914V10.7886H4.36426V1.99902Z" fill="#F7D046"/>
<path d="M39.2734 10.7891H48.0006V19.5787H39.2734V10.7891ZM4.36426 10.7891H13.0914V19.5787H4.36426V10.7891Z" fill="#F2A73B"/>
<path d="M26.1816 10.7891H34.9088V19.5787H26.1816V10.7891Z" fill="black"/>
<path d="M30.5454 10.7891H39.2726V19.5787H30.5454V10.7891ZM13.0908 10.7891H21.818V19.5787H13.0908V10.7891Z" fill="#F2A73B"/>
<path d="M21.8182 19.5791H30.5454V28.3687H21.8182V19.5791ZM30.5454 19.5791H39.2726V28.3687H30.5454V19.5791ZM13.0908 19.5791H21.8182V28.3687H13.0908V19.5791Z" fill="#EE792F"/>
<path d="M17.4551 28.3682H26.1823V37.1578H17.4551V28.3682Z" fill="black"/>
<path d="M21.8184 28.3682H30.5455V37.1578H21.8184V28.3682Z" fill="#EB5829"/>
<path d="M39.2734 19.5791H48.0006V28.3687H39.2734V19.5791ZM4.36426 19.5791H13.0914V28.3687H4.36426V19.5791Z" fill="#EE792F"/>
<path d="M34.9092 28.3682H43.6364V37.1578H34.9092V28.3682Z" fill="black"/>
<path d="M39.2734 28.3682H48.0006V37.1578H39.2734V28.3682Z" fill="#EB5829"/>
<path d="M34.9092 37.1582H43.6364V45.9478H34.9092V37.1582Z" fill="black"/>
<path d="M4.36426 28.3682H13.0914V37.1578H4.36426V28.3682Z" fill="#EB5829"/>
<path d="M39.2734 37.1582H48.0006V45.9478H39.2734V37.1582ZM4.36426 37.1582H13.0914V45.9478H4.36426V37.1582Z" fill="#EA3326"/>
</g>
<defs>
<clipPath id="clip0_1417_15135">
<rect width="48" height="44" fill="white" transform="translate(0 2)"/>
</clipPath>
</defs>
</svg>

<svg width="48" height="48" fill="none" xmlns="http://www.w3.org/2000/svg"><g clip-path="url(#prefix__clip0_1417_15135)"><path d="M34.91 2h8.726v8.789H34.91v-8.79z" fill="#000"/><path d="M39.273 2H48v8.789h-8.727v-8.79z" fill="#F7D046"/><path d="M0 2h8.728v8.789H0v-8.79zm0 8.789h8.728v8.79H0v-8.79zm0 8.79h8.728v8.79H0v-8.79zm0 8.79h8.728v8.789H0v-8.79zm0 8.79h8.728v8.789H0v-8.79z" fill="#000"/><path d="M4.364 2h8.727v8.789H4.364v-8.79z" fill="#F7D046"/><path d="M39.273 10.79H48v8.789h-8.727v-8.79zm-34.91 0h8.728v8.789H4.364v-8.79z" fill="#F2A73B"/><path d="M26.182 10.79h8.727v8.789h-8.727v-8.79z" fill="#000"/><path d="M30.546 10.79h8.727v8.789h-8.727v-8.79zm-17.455 0h8.728v8.789H13.09v-8.79z" fill="#F2A73B"/><path d="M21.819 19.579h8.727v8.79h-8.727v-8.79zm8.727 0h8.727v8.79h-8.727v-8.79zm-17.455 0h8.728v8.79H13.09v-8.79z" fill="#EE792F"/><path d="M17.455 28.368h8.727v8.79h-8.727v-8.79z" fill="#000"/><path d="M21.818 28.368h8.727v8.79h-8.727v-8.79z" fill="#EB5829"/><path d="M39.273 19.579H48v8.79h-8.727v-8.79zm-34.91 0h8.728v8.79H4.364v-8.79z" fill="#EE792F"/><path d="M34.91 28.368h8.726v8.79H34.91v-8.79z" fill="#000"/><path d="M39.273 28.368H48v8.79h-8.727v-8.79z" fill="#EB5829"/><path d="M34.91 37.158h8.726v8.79H34.91v-8.79z" fill="#000"/><path d="M4.364 28.368h8.727v8.79H4.364v-8.79z" fill="#EB5829"/><path d="M39.273 37.158H48v8.79h-8.727v-8.79zm-34.91 0h8.728v8.79H4.364v-8.79z" fill="#EA3326"/></g><defs><clipPath id="prefix__clip0_1417_15135"><path fill="#fff" transform="translate(0 2)" d="M0 0h48v44H0z"/></clipPath></defs></svg>
